public/assets/img/icons/bin.svg

<?xml version="1.0" encoding="utf-8"?>
<!-- Uploaded to: SVG Repo, www.svgrepo.com, Generator: SVG Repo Mixer Tools -->
<svg width="800px" height="800px" viewBox="0 0 24 24" fill="none" xmlns="http://www.w3.org/2000/svg">
<g id="Interface / Trash_Full">
<path id="Vector" d="M14 10V17M10 10V17M6 6V17.8C6 18.9201 6 19.4798 6.21799 19.9076C6.40973 20.2839 6.71547 20.5905 7.0918 20.7822C7.5192 21 8.07899 21 9.19691 21H14.8031C15.921 21 16.48 21 16.9074 20.7822C17.2837 20.5905 17.5905 20.2839 17.7822 19.9076C18 19.4802 18 18.921 18 17.8031V6M6 6H8M6 6H4M8 6H16M8 6C8 5.06812 8 4.60241 8.15224 4.23486C8.35523 3.74481 8.74432 3.35523 9.23438 3.15224C9.60192 3 10.0681 3 11 3H13C13.9319 3 14.3978 3 14.7654 3.15224C15.2554 3.35523 15.6447 3.74481 15.8477 4.23486C15.9999 4.6024 16 5.06812 16 6M16 6H18M18 6H20" stroke="#000000" stroke-width="2" stroke-linecap="round" stroke-linejoin="round"/>
</g>
</svg>

<svg xmlns="http://www.w3.org/2000/svg" width="800" height="800" fill="none" viewBox="0 0 24 24"><path stroke="#000" stroke-linecap="round" stroke-linejoin="round" stroke-width="2" d="M14 10v7m-4-7v7M6 6v11.8c0 1.12 0 1.68.218 2.108a2 2 0 0 0 .874.874c.427.218.987.218 2.105.218h5.606c1.118 0 1.677 0 2.104-.218.377-.192.683-.498.875-.874.218-.428.218-.987.218-2.105V6M6 6h2M6 6H4m4 0h8M8 6c0-.932 0-1.398.152-1.765a2 2 0 0 1 1.082-1.083C9.602 3 10.068 3 11 3h2c.932 0 1.398 0 1.765.152a2 2 0 0 1 1.083 1.083C16 4.602 16 5.068 16 6m0 0h2m0 0h2"/></svg>
